X: 158
T: Lullaby
%R: air
B: "The Everyday Song Book", 1927
F: http://www.library.pitt.edu/happybirthday/pdf/The_Everyday_Song_Book.pdf
Z: 2017 John Chambers <jc:trillian.mit.edu>
M: 2/4
L: 1/8
K: C
% - - - - - - - - - - - - - - - - - - - - - - - - - - - - -
[| G2 E2 | G2 E2 | (FG) A2 | G2 z2 | c2 c2 | B2 G2 | (^FG) A2 | G4 |
w: 1.~Win-kum, Win-kum, shut*your eye,  Sweet my ba-by, lul-*la-by,
w: 2.~Chick-ens long have gone* to rest, Birds lie snug with-in* their nest,
%
G2 c2 | B2 c2 | d2G2 | G2 z2 | G2 c2 B2 c2 | d2 G2 | G4 |
w: For the dews are fal-ling soft, Lights are flick'r-ing up a-loft,
w: And my bir-die soon will be     Sleep-ing like a chick-a-dee;
%
G2 E2 | G2 E2 | (FG) A2 | (G2 E2) | c2 c2 | e2 (dc) | B2 d2 | (d2 c2) |]
w: And the head-lights peep-*ing o-ver Yon-der hill-top* capp'd with clo-ver.
w: For with on-ly half* a cry,*        Win-kum, Win-kum* shuts her eye._
% - - - - - - - - - - - - - - - - - - - - - - - - - - - - -
